X: 25095
T: Maids Of Selma, The
R: jig
M: 6/8
K: Gmajor
~G3 EDE|GBd e3|~d3 BAG|AcB AGF|
~G3 EDE|GBd ege|d2B BAG|1 ABA G2F:|2 ABA GA/B/c||
|:~d3 ~g3|ege edB|d2e g2a|b2e edB|
GBd ~g3|ege edB|d2e g2a|b2b aba|
~g3 efg|~f3 ~d3|e2d B2A|G2E EDE|
G3 EDE|GBd e3|~d3 BAG|1 ABA GA/B/c:|2 ABA G2F||

